!!!COM: Scriabin, Alexander
!!!OTL@@FR: Prelude
!!!OTL@@EN:
!!!OPR@@FR: 24 Preludes
!!!OPR@@EN:
!!!OPS: 11
!!!ONM: 14
!!!ODT: 1895
!!!AGN: Prelude
**kern	**kern	**dynam
*staff2	*staff1	*staff1/2
*Ipiano	*Ipiano	*
*clefF4	*clefG2	*
*k[b-e-a-d-g-c-]	*k[b-e-a-d-g-c-]	*
*e-:	*e-:	*
*M15/8	*M15/8	*
8BBB- 8BB-	8r	.
=1	=1	=1
*	*^	*
4.EE- 4.E-	8raa	8rc	.
.	8B-L	4B-	.
.	8G-J 8e-	.	.
8r	4G- 4B- 4e- 4f	4rc	.
8BBB- 8BB-	.	.	.
4.EE- 4.E-	8raa	8rc	.
.	8B-L	4B-	.
.	8e-J 8g-	.	.
8r	4B- 4e- 4f 4a-	4rc	.
8EE- 8E-	.	.	.
4.GG- 4.G-	8raa	8rc	.
.	8e-L	4e-	.
.	8B-J 8b-	.	.
8r	4c- 4e- 4cc-	4rc	.
8GG- 8G-	.	.	.
=2	=2	=2	=2
[4.C- [4.c-	8raa	8rc	.
.	8e-L	4e-	.
.	8B-J 8b-	.	.
4C-_ 4c-_	8An 8e- 8an	8rc	.
.	8e- 8ee-	8rc	.
4.C-_ 4.c-_	8e- 8ee-	8rc	.
.	8e-L	4e-	.
.	8A-XJ 8a-X	.	.
8C-L] 8c-]	4Gn 4e- 4gn	4rc	.
8C-J 8c-	.	.	.
[4.C- [4.c-	8raa	8rc	.
.	8e-L	4e-	.
.	8G-XJ 8g-X	.	.
8C-L] 8c-]	4F 4dn 4f	4rc	.
8BBB-J 8BB-	.	.	.
=3	=3	=3	=3
4.EE- 4.E-	8raa	8rc	.
.	8B-L	4B-	.
.	8G-J 8e-	.	.
8r	4G- 4B- 4e- 4f	4rc	.
8BBB- 8BB-	.	.	.
4.EE- 4.E-	8raa	8rc	.
.	8B-L	4B-	.
.	8e-J 8g-	.	.
8r	4B- 4e- 4f 4a-	4rc	.
8EE- 8E-	.	.	.
4.GG- 4.G-	8raa	8rc	.
.	8e-L	4e-	.
.	8B-J 8b-	.	.
8r	4c- 4e- 4cc-	4rc	.
8GG- 8G-	.	.	.
=4	=4	=4	=4
[4.C- [4.c-	8raa	8rc	.
.	8e-L	4e-	.
.	8B-J 8b-	.	.
4C-_ 4c-_	8An 8e- 8an	8rc	.
.	8e- 8ee-	8rc	.
4.C-_ 4.c-_	8e- 8ee-	8rc	.
.	8e-L	4e-	.
.	8A-XJ 8a-X	.	.
8C-L] 8c-]	4Gn 4e- 4gn	4rc	.
8C-J 8c-	.	.	.
[4.C- [4.c-	8raa	8rc	.
.	8e-L	4e-	.
.	8G-XJ 8g-X	.	.
8C-L] 8c-]	4F 4dn 4f	4rc	.
8BB-J 8B-	.	.	.
=5	=5	=5	=5
4.AA- 4.A-	8raa	8rc	.
.	8B-L	4B-	.
.	8dnJ 8b-	.	.
8r	4c- 4d 4cc-	4rc	.
8AA- 8A-	.	.	.
4.GG- 4.G-	8raa	8rc	.
.	8c-L	4c-	.
.	8e-J 8cc-	.	.
8r	4d 4a- 4b- 4ddn	4rc	.
8FF 8F	.	.	.
4.EE- 4.E-	8raa	8rc	.
.	8e-L	4e-	.
.	8a-J 8cc- 8ee-	.	.
8r	4g- 4cc- 4ee- 4gg-	4rc	.
8E- 8e-	.	.	.
=6	=6	=6	=6
4.D-X 4.d-X	8raa	8rc	.
.	8e-L	4e-	.
.	8gnJ 8ee-	.	.
8r	4f-X 4g 4ff-X	4rc	.
8D- 8d-	.	.	.
4.C- 4.c-	8raa	8rc	.
.	8f-L	4f-	.
.	8a-J 8ff-	.	.
8r	4g 4dd- 4ee- 4ggn	4rc	.
8BB- 8B-	.	.	.
4.AA- 4.A-	8raa	8rc	.
.	8a-L	4a-	.
.	8dd-J 8ff- 8aa-	.	.
8r	4cc- 4ff- 4aa- 4ccc-	4rc	.
8AAA- 8AA-	.	.	.
=7	=7	=7	=7
4.AAAn 4.AAn	8raa	8rc	.
.	8cc-L	4cc-	.
.	8ee-J 8gg-X 8ccc-	.	.
8BBB-L 8BB-	4b- 4ee- 4gg- 4bb-	4rc	.
8EE-J 8E-	.	.	.
[4.FFn [4.Fn	8raa	8rc	.
.	8e-L	4e-	.
.	8b-J 8ee-	.	.
8FFL] 8F]	4B- 4e- 4b-	4rc	.
8GG-J 8G-	.	.	.
4.BB- 4.B-	8raa	8rc	.
.	8FL	4F	.
.	8e-J 8f	.	.
8r	4G- 4e- 4g-	4rc	.
8BBB- 8BB-	.	.	.
=8	=8	=8	=8
[4.GG- [4.G-	8raa	8rc	.
.	8B-L	4B-	.
.	8dnJ 8a- 8b-	.	.
8GG-L] 8G-]	4c- 4d 4a- 4cc-	4rc	.
8FFJ 8F	.	.	.
[4.GG- [4.G-	8raa	8rc	.
.	8dL	4d	.
.	8a-J 8cc-	.	.
8GG-L] 8G-]	4d 4a- 4b- 4ddn	4rc	.
8FFJ 8F	.	.	.
[4.BB- [4.B-	8raa	8rc	.
.	8dL	4d	.
.	8a-J 8b- 8dd	.	.
8BB-L] 8B-]	4g- 4b- 4dd 4gg-	4rc	.
8BBB-J 8BB-	.	.	.
=9	=9	=9	=9
*^	*	*	*
4.EE- 4.E-	4.rEE	8raa	8rc	.
.	.	8b-L	4b-	.
.	.	8g-J 8ee-	.	.
8rc	4G- 4B- 4e- 4f	4g- 4b- 4ee- 4ff	4rc	.
8BBB- 8BB-	.	.	.	.
4.EE- 4.E-	4.rEE	8raa	8rc	.
.	.	8b-L	4b-	.
.	.	8ee-J 8gg-	.	.
8rc	4B- 4e- 4f 4a-	4b- 4ee- 4ff 4aa-	4rc	.
8EE- 8E-	.	.	.	.
4.GG- 4.G-	4.rEE	8raa	8rc	.
.	.	8ee-L	4ee-	.
.	.	8b-J 8bb-	.	.
8rc	4c- 4e- 4g-	4cc- 4ee- 4ccc-	4rc	.
8GG- 8G-	.	.	.	.
=10	=10	=10	=10	=10
[4.C- [4.c-	4.rEE	8raa	8rc	.
.	.	8ee-L	4ee-	.
.	.	8b-J 8bb-	.	.
4C-_ 4c-_	8AnL 8e-	8an 8ee- 8aan	8rc	.
.	8e-J	8ee- 8eee-	8rc	.
4.C-_ 4.c-_	4e-	8ee- 8eee-	8rc	.
.	.	8ee-L	4ee-	.
.	8A-X 8e-	8a-XJ 8aa-X	.	.
8C-L] 8c-]	4Gn 4e-	4gn 4ee- 4ggn	4rc	.
8C-J 8c-	.	.	.	.
[4.C- [4.c-	4rEE	8raa	8rc	.
.	.	8ee-L	4ee-	.
.	8G-X 8A- 8e-	8g-XJ 8gg-X	.	.
8C-L] 8c-]	4F 4A- 4dn	4f 4ddn 4ff	4rc	.
8BBB-J 8BB-	.	.	.	.
=11	=11	=11	=11	=11
4.EE- 4.E-	4.rEE	8raa	8rc	.
.	.	8b-L	4b-	.
.	.	8g-J 8ee-	.	.
8rc	4G- 4B- 4e- 4f	4g- 4b- 4ee- 4ff	4rc	.
8BBB- 8BB-	.	.	.	.
4.EE- 4.E-	4.rEE	8raa	8rc	.
.	.	8b-L	4b-	.
.	.	8ee-J 8gg-	.	.
8rc	4B- 4e- 4f 4a-	4b- 4ee- 4ff 4aa-	4rc	.
8EE- 8E-	.	.	.	.
4.GG- 4.G-	4.rEE	8raa	8rc	.
.	.	8ee-L	4ee-	.
.	.	8b-J 8bb-	.	.
8rc	4c- 4e- 4g-	4cc- 4ee- 4ccc-	4rc	.
8GG- 8G-	.	.	.	.
=12	=12	=12	=12	=12
[4.C- [4.c-	4.rEE	8rb	8rc	.
.	.	8ee-L	4ee-	.
.	.	8b-J 8bb-	.	.
4C-_ 4c-_	8AnL 8e-	8an 8ee- 8aan	8rc	.
.	8e-J	8ee- 8eee-	8rc	.
4.C-_ 4.c-_	[4e-	8ee- 8eee-	8rc	.
.	.	8ee-L	4ee-	.
.	8A-X 8e-]	8a-XJ 8aa-X	.	.
8C-L] 8c-]	4Gn 4e-	4gn 4ee- 4ggn	4rc	.
8C-J 8c-	.	.	.	.
[4.C- [4.c-	4rEE	8raa	8rc	.
.	.	8ee-L	4ee-	.
.	8G-X 8A- 8e-	8g-XJ 8gg-X	.	.
8C-L] 8c-]	4F 4A- 4dn	4f 4ddn 4ff	4rc	.
8BB-J 8B-	.	.	.	.
=13	=13	=13	=13	=13
4.AA- 4.A-	4.rEE	8raa	8rc	.
.	.	8b-L	4b-	.
.	.	8ddnJ 8bb-	.	.
8rc	4A- 4dn 4f	4cc- 4dd 4ccc-	4rc	.
8AA- 8A-	.	.	.	.
4.GG- 4.G-	4.rEE	8raa	8rc	.
.	.	8cc-L	4cc-	.
.	.	8ee-J 8ccc-	.	.
*clefG2	*	*	*	*
8raa	4dn 4a- 4b-	4dd 4aa- 4bb- 4dddn	4rc	.
*clefF4	*	*	*	*
8FF 8F	.	.	.	.
4.EE- 4.E-	4.rEE	8raa	8rc	.
.	.	8ee-L	4ee-	.
.	.	8aa-J 8ccc- 8eee-	.	.
*clefG2	*	*	*	*
8raa	4c- 4e- 4g- 4cc-	4gg- 4ccc- 4eee- 4ggg-	4rc	.
*clefF4	*	*	*	*
8EE- 8E-	.	.	.	.
=14	=14	=14	=14	=14
4.DD- 4.D-	4.rEE	8raa	8rc	.
.	.	8ee-L	4ee-	.
.	.	8ggnJ 8eee-	.	.
8rc	4Gn 4B- 4f-X 4gn	4ff-X 4gg 4fff-X	4rc	.
8DD- 8D-	.	.	.	.
4.CC- 4.C-	4.rEE	8raa	8rc	.
.	.	8ff-L	4ff-	.
.	.	8aa-J 8fff-	.	.
8rc	4G 4d- 4e- 4g	4gg 4ddd- 4eee- 4gggn	4rc	.
8BBB- 8BB-	.	.	.	.
4.AAA- 4.AA-	4.rEE	8raa	8rc	.
.	.	8aa-L	4aa-	.
.	.	8ddd-J 8fff- 8aaa-	.	.
8rc	4F-X 4A- 4c- 4f-	4ccc- 4fff- 4aaa- 4cccc-	4rc	.
8AAA- 8AA-	.	.	.	.
*v	*v	*	*	*
=15	=15	=15	=15
4.AAAn 4.AAn	8raa	8rc	.
.	8ccc-L	4ccc-	.
.	8eee-J 8ggg-X 8cccc-	.	.
8BBB-L 8BB-	4bb- 4eee- 4ggg- 4bbb-	4rc	.
8EE-J 8E-	.	.	.
[4.FFn [4.Fn	8raa	8rc	.
.	8ee-L	4ee-	.
.	8bb-J 8eee-	.	.
8FFL] 8F]	4b- 4ee- 4bb-	4rc	.
8GG-J 8G-	.	.	.
4.BB- 4.B-	8raa	8rc	.
.	8fL	4f	.
.	8b-J 8ee- 8ff	.	.
8r	4g- 4b- 4ee- 4gg-	4rc	.
8AAA-X 8AA-X	.	.	.
=16	=16	=16	=16
4.AAAn 4.AAn	8raa	8rc	.
.	8cc-L	4cc-	.
.	8ee-J 8gg- 8ccc-	.	.
8BBB-L 8BB-	4b- 4ee- 4gg- 4bb-	4rc	.
8EE-J 8E-	.	.	.
[4.FF [4.F	8raa	8rc	.
.	8e-L	4e-	.
.	8b-J 8ee-	.	.
8FFL] 8F]	4B- 4e- 4b-	4rc	.
8GG-J 8G-	.	.	.
4.BB- 4.B-	8raa	8rc	.
.	8FL	4F	.
.	8e-J 8f	.	.
8r	4G- 4e- 4g-	4rc	.
8BBB- 8BB-	.	.	.
*	*clefF4	*	*
=17	=17	=17	=17
[4.GG- [4.G-	8rc	8rEE	.
.	8E-L	4E-	.
.	8A-XJ 8c- 8e-	.	.
8GG-L] 8G-]	4Dn 4A- 4c- 4dn	4rEE	.
8FFJ 8F	.	.	.
[4.GG- [4.G-	8rc	8rEE	.
.	8E-L	4E-	.
.	8A-J 8c- 8e-	.	.
8GG-L] 8G-]	4D 4A- 4c- 4d	4rEE	.
8FFJ 8F	.	.	.
[4.FF-X [4.F-X	8rc	8rEE	.
.	8A-L	4A-	.
.	8dJ 8a-	.	.
8FF-L] 8F-]	4D 4A- 4d	4rEE	.
8FFnJ 8Fn	.	.	.
=18	=18	=18	=18
[4.GG- [4.G-	8rc	8rEE	.
.	8E-L	4E-	.
.	8A-J 8c- 8e-	.	.
8GG-L] 8G-]	4Dn 4A- 4c- 4dn	4rEE	.
8FFJ 8F	.	.	.
[4.GG- [4.G-	8rc	8rEE	.
.	8E-L	4E-	.
.	8A-J 8c- 8e-	.	.
8GG-L] 8G-]	4D 4A- 4c- 4d	4rEE	.
8FFJ 8F	.	.	.
[4.FF-X 4.F-X	8rc	8rEE	.
.	8A-L	4A-	.
.	8dJ 8a-	.	.
8FF-L] 8F-	4D 4A- 4d	4rEE	.
8FFnJ 8Fn	.	.	.
*	*clefG2	*	*
=19	=19	=19	=19
[4.EE- [4.E-	8raa	8rc	.
.	8E-L	4E-	.
.	8A-J 8c- 8e-	.	.
8EE-L] 8E-]	4c- 4e- 4f	4rc	.
8AAA-J 8AA-	.	.	.
[4.C- [4.c-	8raa	8rc	.
.	8A-L	4A-	.
.	8e-J 8f 8a-	.	.
8C-L] 8c-]	4e- 4f 4a-	4rc	.
8C-J 8c-	.	.	.
[4.C- [4.c-	8raa	8rc	.
.	8e-L	4e-	.
.	8a-J 8ee-	.	.
8C-L] 8c-]	4e- 4a- 4ee-	4rc	.
8E-J 8e-	.	.	.
=20	=20	=20	=20
[4.E- [4.e-	8raa	8rc	.
.	8e-L	4e-	.
.	8a-J 8cc- 8ee-	.	.
8E-L] 8e-]	4f 4cc- 4ee- 4ff	4rc	.
8AA-J 8A-	.	.	.
*clefG2	*	*	*
[4.c- [4.cc-	8raa	8rc	.
.	8a-L	4a-	.
.	8ee-J 8ff 8aa-	.	.
8c-L] 8cc-]	4a- 4ee- 4ff 4aa-	4rc	.
8c-J 8cc-	.	.	.
4.c- 4.cc-	8raa	8rc	.
.	8ee-L	4ee-	.
.	8aa-J 8eee-	.	.
*clefF4	*	*	*
8r	4ff 4aa- 4eee- 4fff	4rc	.
8BBB- 8BB-	.	.	.
=21	=21	=21	=21
[4.EEE- [4.EE-	8raa	8rc	.
.	8bb-L	4bb-	.
.	8eee-J 8fff	.	.
8EEE-L] 8EE-]	4bb- 4eee- 4ggg-	4rc	.
8BB-J 8B-	.	.	.
4.G- 4.g-	8raa	8rc	.
.	8ee-L	4ee-	.
.	8gg-J 8ccc-	.	.
8r	4ee- 4gg- 4bb-	4rc	.
8BB- 8B-	.	.	.
4.BB- 4.B-	8raa	8rc	.
.	8b-L	4b-	.
.	8ee-J 8ff	.	.
8r	4b- 4ee- 4gg-	4rc	.
8BBB- 8BB-	.	.	.
=22	=22	=22	=22
4.EEE- 4.EE-	8raa	8rc	.
.	8e-L	4e-	.
.	8g-J 8cc-	.	.
8r	4e- 4g- 4b-	4rc	.
8BB- 8B-	.	.	.
4.BB- 4.B-	8raa	8rc	.
.	8B-L	4B-	.
.	8e-J 8f	.	.
8r	4B- 4e- 4g-	4rc	.
8BBB- 8BB-	.	.	.
*	*clefF4	*	*
4.BBB- 4.BB-	8rc	8rEE	.
.	8E-L	4E-	.
.	8G-J 8c-	.	.
8r	4E- 4G- 4B-	4rEE	.
8EEE- 8EE-	.	.	.
=23	=23	=23	=23
4.EEE- 4.EE-	8rc	8rEE	.
.	8BB-L	4BB-	.
.	8E-J 8F	.	.
8r	4BB- 4E- 4G-	4rEE	.
8EEE- 8EE-	.	.	.
4.EEE- 4.EE-	8rc	8rEE	.
.	8BB-L	4BB-	.
.	8E-J 8F	.	.
8r	4BB- 4E- 4G-	4rEE	.
8EEE- 8EE-	.	.	.
8EEE-L 8BBB- 8EE-	8BB-L 8E- 8G-	4.rEE	.
8EEE- 8BBB- 8EE-	8BB- 8E- 8G-	.	.
8EEE- 8BBB- 8EE-	8BB- 8E- 8G-	.	.
8EEE- 8BBB- 8EE-	8BB- 8E- 8G-	4rEE	.
8EEE-J 8BBB- 8EE-	8BB-J 8E- 8G-	.	.
*	*v	*v	*
=24	=24	=24
*M4/4	*M4/4	*
*met(c)	*met(c)	*
1EEE- 1BBB- 1EE-	1BB- 1E- 1G-	.
==	==	==
*-	*-	*-
!!!system-decoration: {(*)}
!!!ENC: Bryan Jacob Bell
!!!END: November 2021 to April 2022
!!!PED: Günter Philipp
!!!PTL: Ausgewählte Klavierwerke (Edition Peters)
